packages/core/src/svgs/tokens/branded/MMF.svg

<svg width="24" height="24" viewBox="0 0 24 24" fill="none" xmlns="http://www.w3.org/2000/svg">
<path d="M12 22C17.5229 22 22 17.5229 22 12C22 6.47714 17.5229 2 12 2C6.47714 2 2 6.47714 2 12C2 17.5229 6.47714 22 12 22Z" fill="black"/>
<path d="M3.80027 7.03532C4.24147 6.35111 4.74988 5.71265 5.31791 5.12944C5.4885 4.86473 5.71202 4.97061 6.08261 5.12944C6.44732 5.29414 7.44732 5.85296 8.3179 6.37061C9.0179 6.78237 9.71787 6.54707 9.97673 6.37061C10.2356 7.43532 9.94736 8.92354 8.88261 9.47059C8.02967 9.91172 6.88261 9.653 6.42378 9.47059C5.71979 8.70849 4.89747 8.06493 3.9885 7.56472C3.69438 7.41178 3.74144 7.15296 3.80027 7.03532ZM17.4238 6.64708C18.7179 6.37649 18.9297 5.68826 18.8767 5.38237C19.5885 6.01767 19.1238 7.39414 18.8062 8.00001C19.1747 7.87105 19.5102 7.66213 19.7885 7.38825C19.8473 8.90002 17.9827 10.5059 16.8297 10.5353C15.6768 10.5705 14.465 10.0471 14.2414 9.47059C14.0238 8.89413 14.159 8.42355 14.6415 7.71178C15.1238 7.00001 15.8179 6.97649 17.4238 6.64708Z" fill="#634E77"/>
<path d="M5.87066 4.68831C6.67654 3.9236 9.0883 2.40007 12.3295 2.42361C15.5647 2.45302 17.8001 4.17066 18.506 5.02949V5.92361C18.506 6.21772 17.6588 6.39418 16.459 6.63537C16.1353 6.70007 15.7942 6.77066 15.4353 6.85301C15.1766 6.95889 14.6001 7.27654 14.3647 7.67654L11.2824 7.20595C11.3413 6.24125 10.8472 5.30007 10.3648 5.3236C10.6236 5.49419 11.1118 6.08831 11.0353 7.16477L10.2648 7.04713C10.253 6.71772 10.1765 6.07066 9.95307 6.08831C9.88239 6.08831 9.80004 6.14125 9.70011 6.20008C9.44715 6.3589 9.07654 6.58243 8.39419 6.21772C8.00595 6.01183 7.57066 5.68831 7.1589 5.39419C6.57066 4.96479 6.04124 4.58831 5.87066 4.68831ZM2.72949 9.49425C2.72949 9.39419 3.18243 8.24125 3.31773 7.95301C3.45302 7.65889 3.60596 7.65302 3.7883 7.71772L3.88831 7.75301C4.04714 7.80007 4.20596 7.84714 4.01772 8.02948C3.96479 8.07654 3.88831 8.13537 3.79419 8.19418C3.48243 8.41772 2.98831 8.76478 2.72949 9.49425ZM2.91772 10.9766L5.32948 11.1941C5.22948 11.8648 5.56478 12.3236 5.74125 12.4765L4.44125 12.5354C3.51772 12.3 3.04125 11.6118 2.82948 11.3001L2.80596 11.2765C2.64714 11.0412 2.81185 10.9824 2.91772 10.9766ZM7.60595 12.7825C7.78242 12.6471 8.16478 12.2531 8.27066 11.7824C8.35889 12.053 8.35301 12.6237 7.60595 12.7825ZM19.5118 6.73537C19.4598 7.01359 19.3789 7.28564 19.2706 7.54712C19.4059 7.47066 19.706 7.10007 19.8354 6.9236C20.0236 7.11772 20.0236 7.84714 19.8942 8.22949C19.7883 8.53536 19.8883 8.64713 19.9471 8.66478C20.3 8.84125 21.0177 9.53542 21.3294 9.85893C21.0883 8.56477 20.1118 6.91772 19.9471 6.63537C19.7824 6.3589 19.5236 6.5236 19.5118 6.73537ZM17.2295 11.7001H15.5295C15.4707 11.7178 15.3648 11.7942 15.4412 11.9824C15.6118 12.2824 16.0766 12.9236 16.553 13.0883H17.3648C17.4648 13.0648 17.6706 13.0059 17.7177 12.9413C17.416 12.599 17.2434 12.1621 17.2295 11.706V11.7001Z" fill="#F0F3FA"/>
<path d="M4.19987 8.15303C3.64768 8.52713 3.2067 9.04332 2.9234 9.64717L6.67635 10.1354C6.64106 10.2766 6.49988 10.306 6.42929 10.3001L2.81753 9.86485C2.81753 9.99415 2.88812 10.0412 2.9234 10.0471L7.36459 10.5353C7.56458 10.5706 7.62341 10.706 7.62341 10.7648L2.68223 10.2177C2.69988 10.3295 2.77635 10.3765 2.81753 10.3942L8.34106 11.0001C8.2508 10.6432 8.12466 10.2962 7.96458 9.96478C7.39764 9.97356 6.83497 9.8654 6.31165 9.64717C5.78499 9.10755 5.2187 8.60812 4.61753 8.15303C4.48223 8.01185 4.28223 8.0942 4.20576 8.15303H4.19987ZM2.9234 13.2059C3.00576 13.1295 3.29399 12.9354 3.4293 12.8471L3.12341 12.6765C3.5587 12.7413 4.05282 12.5236 3.65871 12.4236C3.34695 12.3354 2.77635 11.6118 2.52929 11.2649C2.58812 11.7706 3.15283 12.3177 3.4293 12.5236C3.03358 12.3595 2.68269 12.1033 2.40576 11.7765L2.44694 12.9648C2.4587 13.3589 2.81753 13.306 2.91753 13.2059H2.9234ZM8.59988 11.6824C8.67047 11.959 8.64105 12.5589 7.90575 12.7413C8.06458 12.6178 8.41752 12.2295 8.59988 11.6824ZM15.0763 12.6001C15.0233 12.4706 15.0529 12.0118 15.0763 11.8059C15.4175 12.9295 16.6058 13.2413 17.1529 13.2589C16.9763 13.2589 16.5234 13.2707 16.1822 13.2589C15.7446 13.1842 15.3504 12.9494 15.0763 12.6001ZM21.5235 13.0471C21.6998 11.8766 21.4469 10.3647 21.2999 9.75299C20.9853 9.42193 20.6222 9.1403 20.2234 8.91773C19.9058 8.7295 19.9058 8.87068 19.941 8.97068C20.3403 9.4826 20.5391 10.1226 20.4998 10.7707C20.4822 10.4177 20.0293 9.54711 19.8175 9.20596C19.6469 8.9295 19.4235 9.08832 19.3293 9.20596C17.6234 11.2824 15.8411 10.7765 15.5822 10.6884C15.3705 10.6118 15.241 10.8648 15.1999 11.006L20.2823 11.1766L20.3881 11.2824L15.1999 11.1236C15.1881 11.2649 15.2999 11.3236 15.3587 11.3354L20.6881 11.5119C20.8646 11.5354 20.6999 12.1589 20.5999 12.4647L20.9823 11.9178C20.951 12.2803 20.8185 12.6268 20.5999 12.9177C20.8587 13.0177 21.1763 12.659 21.3058 12.4647C21.194 12.659 21.0116 13.0766 21.1586 13.1824C21.2999 13.2883 21.4587 13.1354 21.5235 13.0471Z" fill="#DA42E5"/>
<path fill-rule="evenodd" clip-rule="evenodd" d="M9.74106 9.23527L9.70579 9.27057C9.37322 9.6343 8.92753 9.87477 8.44101 9.95287C8.46455 10.1999 8.54691 10.9058 8.68807 11.7353C8.86455 12.7765 8.07631 12.9765 7.83514 12.9765C7.6469 12.9765 7.75866 13.1177 7.83514 13.1882C8.08808 13.3177 8.3469 13.6176 8.44101 13.7529L8.34102 13.8353C8.04103 13.4235 7.16454 12.8236 5.72337 12.6941C4.83276 12.6269 3.94221 12.8255 3.16456 13.2647C2.6822 13.5588 2.62337 13.9882 2.64691 14.1647L2.83514 14.7059C3.67044 14.0236 4.79396 14.5646 5.2469 14.9236V15.1353L4.8822 14.9236C4.5469 14.7293 4.39985 14.9236 4.36455 15.0412C3.99396 16.9824 5.72337 19.2 8.02337 18.9823C10.3292 18.7705 11.4293 16.7941 11.541 16.0235C11.6352 15.4059 11.5822 14.3059 11.541 13.8353C11.5351 13.6118 11.4175 13.1294 11.0292 12.9765L9.6292 12.4412V12.4294C9.65871 12.1823 9.83508 10.8883 11.8586 10.8471C13.5057 10.8118 13.9763 11.8941 14.0057 12.4353C13.4998 12.4 12.4292 12.5824 12.1998 13.6235C12.0313 14.3399 11.9835 15.0796 12.0586 15.8117C12.2057 17.0352 13.1881 19.4294 15.9469 19.2C18.7057 18.9647 19.5233 16.2353 19.5939 14.8999C19.1646 14.8883 18.3117 14.8765 18.2763 14.8999C19.547 14.1588 20.394 14.4353 20.7527 14.5882C21.1117 14.7352 21.2528 14.6176 21.3233 14.2058C21.3479 14.0963 21.3384 13.982 21.2964 13.8781C21.2544 13.774 21.1818 13.6852 21.0881 13.6235C18.5469 12.4471 17.0352 13.4117 16.5998 14.0352C16.5468 13.8646 16.6881 13.5764 16.7704 13.4529C15.6057 13.6118 15.0351 12.847 14.8998 12.4412L15.0763 12.5294L14.9821 11.1176C15.0881 10.8 15.0233 10.5293 14.9821 10.4294C13.247 9.50583 13.9352 8.15292 14.4998 7.58821C14.3587 7.22351 13.7586 6.45293 12.4704 6.28822C12.0475 6.22457 11.6157 6.2547 11.2057 6.37646C11.2923 6.68885 11.3151 7.0155 11.2727 7.33691C11.2303 7.65831 11.1235 7.96786 10.9587 8.24704C10.4881 8.97645 10.0234 9.19998 9.74106 9.23527ZM10.9998 6.45293C11.041 6.67646 11.0587 6.92352 11.0292 7.21763C10.9116 8.54116 10.3528 8.83528 10.1176 8.48822C10.2352 8.10587 10.3116 7.61175 10.2527 7.01763C10.3587 6.85293 10.6058 6.61763 10.9998 6.45293ZM11.094 8.99998C10.7352 9.42938 10.1645 9.47646 9.92924 9.44708L9.81751 9.70581C10.3646 9.91169 10.9527 9.37063 11.1763 9.07646L11.094 8.99998ZM13.7411 8.16468C13.494 8.39998 13.0293 8.98821 13.1587 9.51763C13.2881 10.047 13.9293 10.3705 14.2352 10.4588H14.4645C13.9175 10.1999 13.0116 9.3882 13.7468 8.24704V8.16468H13.7411Z" fill="#F0BC81"/>
<path d="M9.33533 12.8058C9.33533 12.8573 9.31488 12.9067 9.27837 12.9431C9.24201 12.9795 9.19262 12.9999 9.14114 12.9999C9.08965 12.9999 9.04028 12.9795 9.00388 12.9431C8.96748 12.9067 8.94703 12.8573 8.94703 12.8058C8.94703 12.7544 8.96748 12.705 9.00388 12.6686C9.04028 12.6322 9.08965 12.6118 9.14114 12.6118C9.19262 12.6118 9.24201 12.6322 9.27837 12.6686C9.31488 12.705 9.33533 12.7544 9.33533 12.8058ZM5.86467 13.0176C5.8686 13.0349 5.8686 13.0528 5.86466 13.0699C5.86072 13.0872 5.85295 13.1033 5.84193 13.1171C5.83092 13.131 5.81692 13.1421 5.801 13.1498C5.78508 13.1575 5.76764 13.1615 5.74997 13.1615C5.73231 13.1615 5.71486 13.1575 5.69894 13.1498C5.68302 13.1421 5.66902 13.131 5.658 13.1171C5.64699 13.1033 5.63922 13.0872 5.63528 13.0699C5.63134 13.0528 5.63134 13.0349 5.63527 13.0176C5.63527 12.9865 5.64766 12.9565 5.66972 12.9344C5.69179 12.9123 5.72171 12.9 5.75291 12.9C5.78411 12.9 5.81404 12.9123 5.8361 12.9344C5.85817 12.9565 5.87056 12.9865 5.87056 13.0176H5.86467ZM7.72938 14.0352C7.7333 14.0525 7.7333 14.0704 7.72936 14.0877C7.72542 14.1048 7.71765 14.121 7.70665 14.1347C7.69563 14.1486 7.68163 14.1597 7.6657 14.1674C7.64978 14.1751 7.63235 14.1791 7.61467 14.1791C7.59701 14.1791 7.57956 14.1751 7.56364 14.1674C7.54772 14.1597 7.53372 14.1486 7.52271 14.1347C7.51169 14.121 7.50392 14.1048 7.49998 14.0877C7.49604 14.0704 7.49604 14.0525 7.49997 14.0352C7.49997 14.0041 7.51236 13.9741 7.53442 13.952C7.55649 13.93 7.58641 13.9176 7.61761 13.9176C7.64882 13.9176 7.67874 13.93 7.7008 13.952C7.72287 13.9741 7.73526 14.0041 7.73526 14.0352H7.72938ZM9.1882 14.9294C9.25061 14.9294 9.31048 14.9046 9.35454 14.8604C9.39874 14.8163 9.42344 14.7565 9.42344 14.694C9.42344 14.6317 9.39874 14.5719 9.35454 14.5277C9.31048 14.4836 9.25061 14.4588 9.1882 14.4588C9.12579 14.4588 9.06595 14.4836 9.02182 14.5277C8.9777 14.5719 8.95291 14.6317 8.95291 14.694C8.95291 14.7565 8.9777 14.8163 9.02182 14.8604C9.06595 14.9046 9.12579 14.9294 9.1882 14.9294ZM9.79993 13.5294C9.8514 13.5294 9.90082 13.509 9.93719 13.4725C9.9737 13.4361 9.99415 13.3867 9.99415 13.3352C9.99415 13.2838 9.9737 13.2343 9.93719 13.198C9.90082 13.1616 9.8514 13.1411 9.79993 13.1411C9.74846 13.1411 9.69905 13.1616 9.66268 13.198C9.62631 13.2343 9.60585 13.2838 9.60585 13.3352C9.60585 13.3867 9.62631 13.4361 9.66268 13.4725C9.69905 13.509 9.74846 13.5294 9.79993 13.5294ZM14.9294 14.1765C14.9346 14.2084 14.9329 14.2411 14.9242 14.2724C14.9156 14.3036 14.9002 14.3327 14.8792 14.3574C14.8582 14.3819 14.8321 14.4018 14.8026 14.4154C14.7732 14.429 14.7412 14.4361 14.7089 14.4361C14.6763 14.4361 14.6443 14.429 14.615 14.4154C14.5855 14.4018 14.5594 14.3819 14.5384 14.3574C14.5174 14.3327 14.5021 14.3036 14.4934 14.2724C14.4847 14.2411 14.4829 14.2084 14.4881 14.1765C14.4968 14.1242 14.5237 14.0765 14.564 14.0422C14.6045 14.0079 14.6557 13.9891 14.7089 13.9891C14.7618 13.9891 14.8132 14.0079 14.8535 14.0422C14.8939 14.0765 14.9208 14.1242 14.9294 14.1765ZM14.3529 16.6705C14.4122 16.6705 14.4691 16.647 14.5109 16.605C14.5529 16.5632 14.5764 16.5064 14.5764 16.4471C14.5764 16.3878 14.5529 16.3309 14.5109 16.2889C14.4691 16.2471 14.4122 16.2235 14.3529 16.2235C14.2937 16.2235 14.2368 16.2471 14.1948 16.2889C14.153 16.3309 14.1294 16.3878 14.1294 16.4471C14.1294 16.5064 14.153 16.5632 14.1948 16.605C14.2368 16.647 14.2937 16.6705 14.3529 16.6705ZM17.1882 15.0823C17.1882 15.1525 17.1604 15.2199 17.1107 15.2696C17.061 15.3191 16.9937 15.347 16.9235 15.347C16.8533 15.347 16.7859 15.3191 16.7364 15.2696C16.6867 15.2199 16.6588 15.1525 16.6588 15.0823C16.6588 15.0121 16.6867 14.9448 16.7364 14.8951C16.7859 14.8454 16.8533 14.8176 16.9235 14.8176C16.9937 14.8176 17.061 14.8454 17.1107 14.8951C17.1604 14.9448 17.1882 15.0121 17.1882 15.0823ZM15.2293 18.2529C15.2708 18.2529 15.3103 18.2365 15.3395 18.2072C15.3688 18.178 15.3852 18.1383 15.3852 18.097C15.3852 18.0557 15.3688 18.016 15.3395 17.9868C15.3103 17.9576 15.2708 17.9411 15.2293 17.9411C15.188 17.9411 15.1483 17.9576 15.1191 17.9868C15.0899 18.016 15.0735 18.0557 15.0735 18.097C15.0735 18.1383 15.0899 18.178 15.1191 18.2072C15.1483 18.2365 15.188 18.2529 15.2293 18.2529Z" fill="black"/>
<path d="M3.27639 14.8647C2.99992 14.9706 2.99403 15.2471 3.02933 15.3706C3.70849 17.156 4.90703 18.697 6.47032 19.7947C8.03361 20.8925 9.88992 21.4967 11.8 21.5293C17.1882 21.6588 20.094 17.6706 20.8763 15.6588C20.7411 15.347 20.3117 15.1058 20.1117 15.0235C20.0411 16.453 18.941 19.4589 15.7588 19.5647C13.2175 19.6411 12.0646 17.947 11.8 17.0941C11.0293 19.3882 8.72344 19.5824 7.6705 19.3882C4.15286 18.7177 3.76462 16.2176 4.01168 15.053C4.04109 14.5059 3.62344 14.7352 3.27639 14.8647Z" fill="#F0BC81"/>
</svg>

<svg xmlns="http://www.w3.org/2000/svg" width="24" height="24" fill="none" viewBox="0 0 24 24">
    <path fill="#000" d="M12 22c5.523 0 10-4.477 10-10S17.523 2 12 2 2 6.477 2 12s4.477 10 10 10"/>
    <path fill="#634E77" d="M3.8 7.035c.441-.684.95-1.322 1.518-1.906.17-.264.394-.158.765 0 .364.165 1.364.724 2.235 1.242.7.411 1.4.176 1.659 0 .259 1.064-.03 2.553-1.094 3.1-.853.44-2 .182-2.46 0A9.7 9.7 0 0 0 3.99 7.565c-.295-.153-.248-.412-.189-.53m13.624-.388c1.294-.27 1.506-.959 1.453-1.265.712.636.247 2.012-.07 2.618.368-.129.703-.338.982-.612.058 1.512-1.806 3.118-2.96 3.147-1.152.035-2.364-.488-2.588-1.064-.217-.577-.082-1.047.4-1.76.483-.711 1.177-.735 2.783-1.064"/>
    <path fill="#F0F3FA" d="M5.87 4.688c.807-.764 3.218-2.288 6.46-2.264 3.235.029 5.47 1.747 6.176 2.605v.895c0 .294-.847.47-2.047.711a37 37 0 0 0-1.024.218c-.258.106-.835.424-1.07.824l-3.083-.471c.06-.965-.435-1.906-.917-1.882.259.17.747.764.67 1.84l-.77-.117c-.012-.33-.088-.976-.312-.959-.07 0-.153.053-.253.112-.253.159-.623.382-1.306.018-.388-.206-.823-.53-1.235-.824-.588-.43-1.118-.806-1.288-.706M2.73 9.494c0-.1.452-1.253.588-1.541.135-.294.288-.3.47-.235l.1.035c.16.047.318.094.13.276-.053.048-.13.106-.224.165-.312.224-.806.57-1.065 1.3m.188 1.483 2.411.217c-.1.67.236 1.13.412 1.282l-1.3.06c-.923-.236-1.4-.924-1.612-1.236l-.023-.024c-.159-.235.006-.294.112-.3m4.688 1.806c.176-.136.559-.53.665-1 .088.27.082.84-.665 1m11.906-6.048a4 4 0 0 1-.241.812c.135-.076.435-.447.564-.623.189.194.189.923.06 1.305-.107.306-.007.418.052.436.353.176 1.07.87 1.382 1.194-.24-1.294-1.217-2.941-1.382-3.224-.165-.276-.423-.111-.435.1M17.23 11.7h-1.7c-.06.018-.165.094-.089.282.17.3.636.942 1.112 1.106h.812c.1-.023.306-.082.353-.147a1.96 1.96 0 0 1-.488-1.235z"/>
    <path fill="#DA42E5" d="M4.2 8.153c-.552.374-.993.89-1.277 1.494l3.753.488c-.035.142-.176.171-.247.165l-3.611-.435c0 .13.07.176.105.182l4.442.488c.2.036.258.171.258.23l-4.94-.547a.22.22 0 0 0 .135.176L8.34 11a5.5 5.5 0 0 0-.376-1.035c-.567.009-1.13-.1-1.653-.318a15 15 0 0 0-1.694-1.494c-.136-.141-.336-.059-.412 0zm-1.277 5.053c.083-.076.371-.27.506-.359l-.306-.17c.436.064.93-.153.536-.253-.312-.089-.883-.812-1.13-1.16.06.507.624 1.054.9 1.26a2.7 2.7 0 0 1-1.023-.747l.04 1.188c.013.394.372.341.472.24zM8.6 11.682c.07.277.041.877-.694 1.06.159-.124.512-.513.694-1.06m6.476.918c-.053-.13-.023-.588 0-.794.341 1.124 1.53 1.435 2.077 1.453-.177 0-.63.012-.97 0a1.8 1.8 0 0 1-1.107-.659m6.447.447c.177-1.17-.076-2.682-.223-3.294a4.5 4.5 0 0 0-1.077-.835c-.317-.188-.317-.047-.282.053.4.512.598 1.152.559 1.8-.018-.353-.47-1.224-.683-1.565-.17-.276-.393-.118-.488 0-1.706 2.076-3.488 1.57-3.747 1.482-.212-.076-.341.177-.382.318l5.082.17.106.106-5.188-.158c-.012.14.1.2.159.211l5.33.177c.176.023.01.647-.09.953l.383-.547a1.94 1.94 0 0 1-.382 1c.259.1.576-.259.706-.453-.112.194-.294.612-.147.717.14.106.3-.047.364-.135"/>
    <path fill="#F0BC81" fill-rule="evenodd" d="m9.741 9.235-.035.036a2.18 2.18 0 0 1-1.265.682c.024.247.106.953.247 1.782.177 1.042-.612 1.242-.853 1.242-.188 0-.076.14 0 .211.253.13.512.43.606.565l-.1.082c-.3-.412-1.176-1.011-2.618-1.14a4.5 4.5 0 0 0-2.558.57c-.483.294-.542.723-.518.9l.188.54c.835-.681 1.959-.14 2.412.219v.211l-.365-.211c-.335-.195-.482 0-.517.117-.371 1.941 1.358 4.159 3.658 3.941 2.306-.212 3.406-2.188 3.518-2.959.094-.617.041-1.717 0-2.188-.006-.223-.123-.706-.512-.859l-1.4-.535v-.012c.03-.247.206-1.54 2.23-1.582 1.647-.035 2.117 1.047 2.147 1.588-.506-.035-1.577.147-1.806 1.188a6.6 6.6 0 0 0-.141 2.189c.147 1.223 1.13 3.617 3.888 3.388 2.759-.235 3.576-2.965 3.647-4.3-.43-.012-1.282-.024-1.318 0 1.271-.741 2.118-.465 2.477-.312.359.147.5.03.57-.382a.55.55 0 0 0-.235-.582c-2.541-1.177-4.053-.212-4.488.411-.053-.17.088-.459.17-.582-1.164.159-1.735-.606-1.87-1.012l.176.088-.094-1.411a1.04 1.04 0 0 0 0-.689c-1.735-.923-1.047-2.276-.482-2.84-.141-.365-.741-1.136-2.03-1.3a2.9 2.9 0 0 0-1.264.087 2.4 2.4 0 0 1-.247 1.871c-.47.73-.936.953-1.218.988M11 6.453c.041.223.059.47.03.765-.118 1.323-.677 1.617-.912 1.27.117-.382.194-.876.135-1.47.106-.165.353-.4.747-.565M11.094 9c-.359.43-.93.476-1.165.447l-.111.259c.547.206 1.135-.335 1.358-.63zm2.647-.835c-.247.235-.712.823-.582 1.353.13.529.77.852 1.076.94h.23c-.547-.258-1.453-1.07-.718-2.211v-.082z" clip-rule="evenodd"/>
    <path fill="#000" d="M9.335 12.806a.194.194 0 1 1-.387 0 .194.194 0 0 1 .387 0m-3.47.212a.117.117 0 0 1-.207.1.12.12 0 0 1-.023-.1.118.118 0 0 1 .236 0zm1.864 1.017a.12.12 0 0 1-.063.132.117.117 0 0 1-.166-.08.1.1 0 0 1 0-.052.118.118 0 0 1 .235 0zm1.46.894a.235.235 0 1 0 0-.47.235.235 0 0 0 0 .47m.61-1.4a.194.194 0 1 0 .001-.387.194.194 0 0 0 0 .387m5.13.648a.224.224 0 1 1-.44.072.224.224 0 0 1 .44-.072m-.576 2.494a.223.223 0 0 0 .158-.382.224.224 0 1 0-.158.381m2.835-1.589a.265.265 0 1 1-.53 0 .265.265 0 0 1 .53 0m-1.959 3.17a.155.155 0 0 0 .156-.155.156.156 0 1 0-.156.156"/>
    <path fill="#F0BC81" d="M3.276 14.865c-.276.106-.282.382-.247.506a9.56 9.56 0 0 0 8.771 6.158c5.388.13 8.294-3.858 9.076-5.87-.135-.312-.564-.553-.764-.636-.07 1.43-1.171 4.436-4.353 4.542-2.542.076-3.694-1.618-3.959-2.47-.77 2.293-3.077 2.487-4.13 2.293-3.517-.67-3.905-3.17-3.658-4.335.03-.547-.389-.318-.736-.188"/>
</svg>
